svgs/light/scroll-torah.svg

<svg xmlns="http://www.w3.org/2000/svg" viewBox="0 0 640 512"><!-- Font Awesome Pro 6.0.0-alpha2 by @fontawesome - https://fontawesome.com License - https://fontawesome.com/license (Commercial License) --><path d="M210.625 256L177.25 311.875C172.75 319.375 172.625 328.625 177 336.125C181.25 343.75 189.25 348.375 197.999 348.5H265.999L299.5 404.25C303.75 411.625 311.5 416 320 416S336.375 411.5 340.75 404.125L374.125 348.5H442.125C450.75 348.5 458.875 343.75 463.25 336.25C467.5 328.75 467.375 319.5 462.875 312L429.375 256L462.75 200.125C467.25 192.625 467.375 183.375 463.125 175.875C458.75 168.25 450.75 163.625 442.125 163.5H373.999L340.5 107.75C336.25 100.375 328.5 96 320 96S303.625 100.5 299.25 107.875L265.875 163.5H197.875C189.125 163.5 181.125 168.25 176.75 175.75C172.5 183.25 172.625 192.5 177.125 199.875L210.625 256ZM206.5 319.5L227.5 284.25L248.625 319.5H206.5ZM320 382.375L299.75 348.5H340.375L320 382.375ZM433.5 319.5H391.375L412.5 284.25L433.5 319.5ZM433.5 192.5L412.5 227.75L391.375 192.5H433.5ZM320 129.75L340.25 163.5H299.625L320 129.75ZM282.375 192.5H357.625L395.625 256L357.625 319.5H282.375L244.375 256L282.375 192.5ZM248.625 192.5L227.625 227.75L206.5 192.5H248.625ZM576 0C547.625 0 524.375 13.25 515.75 32H124.25C115.625 13.25 92.375 0 64 0C28.125 0 0 21.125 0 48V464C0 490.875 28.125 512 64 512C92.375 512 115.625 498.75 124.25 480H515.75C524.375 498.75 547.625 512 576 512C611.875 512 640 490.875 640 464V48C640 21.125 611.875 0 576 0ZM96 64V464C96 470.375 83.25 480 64 480S32 470.375 32 464V48C32 41.625 44.75 32 64 32S96 41.625 96 48V64ZM512 448H128V64H512V448ZM608 464C608 470.375 595.25 480 576 480S544 470.375 544 464V48C544 41.625 556.75 32 576 32S608 41.625 608 48V464Z"/></svg>

<svg xmlns="http://www.w3.org/2000/svg" viewBox="0 0 640 512"><!--! Font Awesome Pro 6.3.0 by @fontawesome - https://fontawesome.com License - https://fontawesome.com/license (Commercial License) Copyright 2023 Fonticons, Inc. --><path d="M210.6 256L177.2 311.9c-4.5 7.5-4.625 16.75-.25 24.25c4.25 7.625 12.25 12.25 20.1 12.38h68l33.5 55.75C303.8 411.6 311.5 416 320 416s16.38-4.5 20.75-11.88l33.37-55.63h68c8.625 0 16.75-4.75 21.12-12.25C467.5 328.8 467.4 319.5 462.9 312L429.4 256l33.38-55.88c4.5-7.5 4.625-16.75 .375-24.25c-4.375-7.625-12.37-12.25-21-12.38h-68.13L340.5 107.8C336.2 100.4 328.5 96 320 96S303.6 100.5 299.2 107.9L265.9 163.5H197.9c-8.75 0-16.75 4.75-21.12 12.25C172.5 183.2 172.6 192.5 177.1 199.9L210.6 256zM206.5 319.5l21-35.25L248.6 319.5H206.5zM320 382.4L299.8 348.5h40.62L320 382.4zM433.5 319.5h-42.13l21.12-35.25L433.5 319.5zM433.5 192.5l-21 35.25l-21.12-35.25H433.5zM320 129.8l20.25 33.75H299.6L320 129.8zM282.4 192.5h75.25L395.6 256l-38 63.5H282.4L244.4 256L282.4 192.5zM248.6 192.5l-21 35.25L206.5 192.5H248.6zM576 0c-28.38 0-51.63 13.25-60.25 32H124.2C115.6 13.25 92.38 0 64 0C28.12 0 0 21.12 0 48v416C0 490.9 28.12 512 64 512c28.38 0 51.62-13.25 60.25-32h391.5C524.4 498.8 547.6 512 576 512c35.88 0 64-21.12 64-48v-416C640 21.12 611.9 0 576 0zM96 64v400C96 470.4 83.25 480 64 480s-32-9.625-32-16v-416C32 41.62 44.75 32 64 32s32 9.625 32 16V64zM512 448H128V64h384V448zM608 464c0 6.375-12.75 16-32 16s-32-9.625-32-16v-416C544 41.62 556.8 32 576 32s32 9.625 32 16V464z"/></svg>
